example/bin/data/16/2-test.cube
TITLE "16x16x16 Adobe/IRIDAS cube 3D LUT exported with GrossGrade v0.1.027.1 (beta) 64 bit"
DOMAIN_MIN 0 0 0
DOMAIN_MAX 1 1 1
LUT_3D_SIZE 16
0.000000000 0.000000000 0.000000000
0.066666670 0.000000000 0.000000000
0.133333340 0.000000000 0.000000000
0.200000018 0.000000000 0.000000000
0.266666681 0.000000000 0.000000000
0.333333343 0.000000000 0.000000000
0.400000036 0.000000000 0.000000000
0.466666669 0.000000000 0.000000000
0.533333302 0.000000000 0.000000000
0.600000024 0.000000000 0.000000000
0.666666627 0.000000000 0.000000000
0.733333349 0.000000000 0.000000000
0.800000012 0.000000000 0.000000000
0.866666734 0.000000000 0.000000000
0.933333278 0.000000000 0.000000000
1.000000000 0.000000000 0.000000000
0.000000000 0.050000004 0.000000000
0.066666670 0.050000004 0.000000000
0.133333340 0.050000004 0.000000000
0.200000018 0.050000004 0.000000000
0.266666681 0.050000004 0.000000000
0.333333343 0.050000004 0.000000000
0.400000036 0.050000004 0.000000000
0.466666669 0.050000004 0.000000000
0.533333302 0.050000004 0.000000000
0.600000024 0.050000004 0.000000000
0.666666627 0.050000004 0.000000000
0.733333349 0.050000004 0.000000000
0.800000012 0.050000004 0.000000000
0.866666734 0.050000004 0.000000000
0.933333278 0.050000004 0.000000000
1.000000000 0.050000004 0.000000000
0.000000000 0.100000009 0.000000000
0.066666670 0.100000009 0.000000000
0.133333340 0.100000009 0.000000000
0.200000018 0.100000009 0.000000000
0.266666681 0.100000009 0.000000000
0.333333343 0.100000009 0.000000000
0.400000036 0.100000009 0.000000000
0.466666669 0.100000009 0.000000000
0.533333302 0.100000009 0.000000000
0.600000024 0.100000009 0.000000000
0.666666627 0.100000009 0.000000000
0.733333349 0.100000009 0.000000000
0.800000012 0.100000009 0.000000000
0.866666734 0.100000009 0.000000000
0.933333278 0.100000009 0.000000000
1.000000000 0.100000009 0.000000000
0.000000000 0.150000006 0.000000000
0.066666670 0.150000006 0.000000000
0.133333340 0.150000006 0.000000000
0.200000018 0.150000006 0.000000000
0.266666681 0.150000006 0.000000000
0.333333343 0.150000006 0.000000000
0.400000036 0.150000006 0.000000000
0.466666669 0.150000006 0.000000000
0.533333302 0.150000006 0.000000000
0.600000024 0.150000006 0.000000000
0.666666627 0.150000006 0.000000000
0.733333349 0.150000006 0.000000000
0.800000012 0.150000006 0.000000000
0.866666734 0.150000006 0.000000000
0.933333278 0.150000006 0.000000000
1.000000000 0.150000006 0.000000000
0.000000000 0.200000018 0.000000000
0.066666670 0.200000018 0.000000000
0.133333340 0.200000018 0.000000000
0.200000018 0.200000018 0.000000000
0.266666681 0.200000018 0.000000000
0.333333343 0.200000018 0.000000000
0.400000036 0.200000018 0.000000000
0.466666669 0.200000018 0.000000000
0.533333302 0.200000018 0.000000000
0.600000024 0.200000018 0.000000000
0.666666627 0.200000018 0.000000000
0.733333349 0.200000018 0.000000000
0.800000012 0.200000018 0.000000000
0.866666734 0.200000018 0.000000000
0.933333278 0.200000018 0.000000000
1.000000000 0.200000018 0.000000000
0.000000000 0.250000000 0.000000000
0.066666670 0.250000000 0.000000000
0.133333340 0.250000000 0.000000000
0.200000018 0.250000000 0.000000000
0.266666681 0.250000000 0.000000000
0.333333343 0.250000000 0.000000000
0.400000036 0.250000000 0.000000000
0.466666669 0.250000000 0.000000000
0.533333302 0.250000000 0.000000000
0.600000024 0.250000000 0.000000000
0.666666627 0.250000000 0.000000000
0.733333349 0.250000000 0.000000000
0.800000012 0.250000000 0.000000000
0.866666734 0.250000000 0.000000000
0.933333278 0.250000000 0.000000000
1.000000000 0.250000000 0.000000000
0.000000000 0.300000042 0.000000000
0.066666670 0.300000042 0.000000000
0.133333340 0.300000042 0.000000000
0.200000018 0.300000042 0.000000000
0.266666681 0.300000042 0.000000000
0.333333343 0.300000042 0.000000000
0.400000036 0.300000042 0.000000000
0.466666669 0.300000042 0.000000000
0.533333302 0.300000042 0.000000000
0.600000024 0.300000042 0.000000000
0.666666627 0.300000042 0.000000000
0.733333349 0.300000042 0.000000000
0.800000012 0.300000042 0.000000000
0.866666734 0.300000042 0.000000000
0.933333278 0.300000042 0.000000000
1.000000000 0.300000042 0.000000000
0.000000000 0.349999994 0.000000000
0.066666670 0.349999994 0.000000000
0.133333340 0.349999994 0.000000000
0.200000018 0.349999994 0.000000000
0.266666681 0.349999994 0.000000000
0.333333343 0.349999994 0.000000000
0.400000036 0.349999994 0.000000000
0.466666669 0.349999994 0.000000000
0.533333302 0.349999994 0.000000000
0.600000024 0.349999994 0.000000000
0.666666627 0.349999994 0.000000000
0.733333349 0.349999994 0.000000000
0.800000012 0.349999994 0.000000000
0.866666734 0.349999994 0.000000000
0.933333278 0.349999994 0.000000000
1.000000000 0.349999994 0.000000000
0.000000000 0.399999976 0.000000000
0.066666670 0.399999976 0.000000000
0.133333340 0.399999976 0.000000000
0.200000018 0.399999976 0.000000000
0.266666681 0.399999976 0.000000000
0.333333343 0.399999976 0.000000000
0.400000036 0.399999976 0.000000000
0.466666669 0.399999976 0.000000000
0.533333302 0.399999976 0.000000000
0.600000024 0.399999976 0.000000000
0.666666627 0.399999976 0.000000000
0.733333349 0.399999976 0.000000000
0.800000012 0.399999976 0.000000000
0.866666734 0.399999976 0.000000000
0.933333278 0.399999976 0.000000000
1.000000000 0.399999976 0.000000000
0.000000000 0.450000018 0.000000000
0.066666670 0.450000018 0.000000000
0.133333340 0.450000018 0.000000000
0.200000018 0.450000018 0.000000000
0.266666681 0.450000018 0.000000000
0.333333343 0.450000018 0.000000000
0.400000036 0.450000018 0.000000000
0.466666669 0.450000018 0.000000000
0.533333302 0.450000018 0.000000000
0.600000024 0.450000018 0.000000000
0.666666627 0.450000018 0.000000000
0.733333349 0.450000018 0.000000000
0.800000012 0.450000018 0.000000000
0.866666734 0.450000018 0.000000000
0.933333278 0.450000018 0.000000000
1.000000000 0.450000018 0.000000000
0.000000000 0.499999970 0.000000000
0.066666670 0.499999970 0.000000000
0.133333340 0.499999970 0.000000000
0.200000018 0.499999970 0.000000000
0.266666681 0.499999970 0.000000000
0.333333343 0.499999970 0.000000000
0.400000036 0.499999970 0.000000000
0.466666669 0.499999970 0.000000000
0.533333302 0.499999970 0.000000000
0.600000024 0.499999970 0.000000000
0.666666627 0.499999970 0.000000000
0.733333349 0.499999970 0.000000000
0.800000012 0.499999970 0.000000000
0.866666734 0.499999970 0.000000000
0.933333278 0.499999970 0.000000000
1.000000000 0.499999970 0.000000000
0.000000000 0.550000012 0.000000000
0.066666670 0.550000012 0.000000000
0.133333340 0.550000012 0.000000000
0.200000018 0.550000012 0.000000000
0.266666681 0.550000012 0.000000000
0.333333343 0.550000012 0.000000000
0.400000036 0.550000012 0.000000000
0.466666669 0.550000012 0.000000000
0.533333302 0.550000012 0.000000000
0.600000024 0.550000012 0.000000000
0.666666627 0.550000012 0.000000000
0.733333349 0.550000012 0.000000000
0.800000012 0.550000012 0.000000000
0.866666734 0.550000012 0.000000000
0.933333278 0.550000012 0.000000000
1.000000000 0.550000012 0.000000000
0.000000000 0.599999964 0.000000000
0.066666670 0.599999964 0.000000000
0.133333340 0.599999964 0.000000000
0.200000018 0.599999964 0.000000000
0.266666681 0.599999964 0.000000000
0.333333343 0.599999964 0.000000000
0.400000036 0.599999964 0.000000000
0.466666669 0.599999964 0.000000000
0.533333302 0.599999964 0.000000000
0.600000024 0.599999964 0.000000000
0.666666627 0.599999964 0.000000000
0.733333349 0.599999964 0.000000000
0.800000012 0.599999964 0.000000000
0.866666734 0.599999964 0.000000000
0.933333278 0.599999964 0.000000000
1.000000000 0.599999964 0.000000000
0.000000000 0.650000036 0.000000000
0.066666670 0.650000036 0.000000000
0.133333340 0.650000036 0.000000000
0.200000018 0.650000036 0.000000000
0.266666681 0.650000036 0.000000000
0.333333343 0.650000036 0.000000000
0.400000036 0.650000036 0.000000000
0.466666669 0.650000036 0.000000000
0.533333302 0.650000036 0.000000000
0.600000024 0.650000036 0.000000000
0.666666627 0.650000036 0.000000000
0.733333349 0.650000036 0.000000000
0.800000012 0.650000036 0.000000000
0.866666734 0.650000036 0.000000000
0.933333278 0.650000036 0.000000000
1.000000000 0.650000036 0.000000000
0.000000000 0.699999869 0.000000000
0.066666670 0.699999869 0.000000000
0.133333340 0.699999869 0.000000000
0.200000018 0.699999869 0.000000000
0.266666681 0.699999869 0.000000000
0.333333343 0.699999869 0.000000000
0.400000036 0.699999869 0.000000000
0.466666669 0.699999869 0.000000000
0.533333302 0.699999869 0.000000000
0.600000024 0.699999869 0.000000000
0.666666627 0.699999869 0.000000000
0.733333349 0.699999869 0.000000000
0.800000012 0.699999869 0.000000000
0.866666734 0.699999869 0.000000000
0.933333278 0.699999869 0.000000000
1.000000000 0.699999869 0.000000000
0.000000000 0.750000000 0.000000000
0.066666670 0.750000000 0.000000000
0.133333340 0.750000000 0.000000000
0.200000018 0.750000000 0.000000000
0.266666681 0.750000000 0.000000000
0.333333343 0.750000000 0.000000000
0.400000036 0.750000000 0.000000000
0.466666669 0.750000000 0.000000000
0.533333302 0.750000000 0.000000000
0.600000024 0.750000000 0.000000000
0.666666627 0.750000000 0.000000000
0.733333349 0.750000000 0.000000000
0.800000012 0.750000000 0.000000000
0.866666734 0.750000000 0.000000000
0.933333278 0.750000000 0.000000000
1.000000000 0.750000000 0.000000000
0.000000000 0.016666668 0.066666670
0.066666670 0.016666668 0.066666670
0.133333340 0.016666668 0.066666670
0.200000018 0.016666668 0.066666670
0.266666681 0.016666668 0.066666670
0.333333343 0.016666668 0.066666670
0.400000036 0.016666668 0.066666670
0.466666669 0.016666668 0.066666670
0.533333302 0.016666668 0.066666670
0.600000024 0.016666668 0.066666670
0.666666627 0.016666668 0.066666670
0.733333349 0.016666668 0.066666670
0.800000012 0.016666668 0.066666670
0.866666734 0.016666668 0.066666670
0.933333278 0.016666668 0.066666670
1.000000000 0.016666668 0.066666670
0.000000000 0.066666670 0.066666670
0.066666670 0.066666670 0.066666670
0.133333340 0.066666670 0.066666670
0.200000018 0.066666670 0.066666670
0.266666681 0.066666670 0.066666670
0.333333343 0.066666670 0.066666670
0.400000036 0.066666670 0.066666670
0.466666669 0.066666670 0.066666670
0.533333302 0.066666670 0.066666670
0.600000024 0.066666670 0.066666670
0.666666627 0.066666670 0.066666670
0.733333349 0.066666670 0.066666670
0.800000012 0.066666670 0.066666670
0.866666734 0.066666670 0.066666670
0.933333278 0.066666670 0.066666670
1.000000000 0.066666670 0.066666670
0.000000000 0.116666667 0.066666670
0.066666670 0.116666667 0.066666670
0.133333340 0.116666667 0.066666670
0.200000018 0.116666667 0.066666670
0.266666681 0.116666667 0.066666670
0.333333343 0.116666667 0.066666670
0.400000036 0.116666667 0.066666670
0.466666669 0.116666667 0.066666670
0.533333302 0.116666667 0.066666670
0.600000024 0.116666667 0.066666670
0.666666627 0.116666667 0.066666670
0.733333349 0.116666667 0.066666670
0.800000012 0.116666667 0.066666670
0.866666734 0.116666667 0.066666670
0.933333278 0.116666667 0.066666670
1.000000000 0.116666667 0.066666670
0.000000000 0.166666672 0.066666670
0.066666670 0.166666672 0.066666670
0.133333340 0.166666672 0.066666670
0.200000018 0.166666672 0.066666670
0.266666681 0.166666672 0.066666670
0.333333343 0.166666672 0.066666670
0.400000036 0.166666672 0.066666670
0.466666669 0.166666672 0.066666670
0.533333302 0.166666672 0.066666670
0.600000024 0.166666672 0.066666670
0.666666627 0.166666672 0.066666670
0.733333349 0.166666672 0.066666670
0.800000012 0.166666672 0.066666670
0.866666734 0.166666672 0.066666670
0.933333278 0.166666672 0.066666670
1.000000000 0.166666672 0.066666670
0.000000000 0.216666684 0.066666670
0.066666670 0.216666684 0.066666670
0.133333340 0.216666684 0.066666670
0.200000018 0.216666684 0.066666670
0.266666681 0.216666684 0.066666670
0.333333343 0.216666684 0.066666670
0.400000036 0.216666684 0.066666670
0.466666669 0.216666684 0.066666670
0.533333302 0.216666684 0.066666670
0.600000024 0.216666684 0.066666670
0.666666627 0.216666684 0.066666670
0.733333349 0.216666684 0.066666670
0.800000012 0.216666684 0.066666670
0.866666734 0.216666684 0.066666670
0.933333278 0.216666684 0.066666670
1.000000000 0.216666684 0.066666670
0.000000000 0.266666681 0.066666670
0.066666670 0.266666681 0.066666670
0.133333340 0.266666681 0.066666670
0.200000018 0.266666681 0.066666670
0.266666681 0.266666681 0.066666670
0.333333343 0.266666681 0.066666670
0.400000036 0.266666681 0.066666670
0.466666669 0.266666681 0.066666670
0.533333302 0.266666681 0.066666670
0.600000024 0.266666681 0.066666670
0.666666627 0.266666681 0.066666670
0.733333349 0.266666681 0.066666670
0.800000012 0.266666681 0.066666670
0.866666734 0.266666681 0.066666670
0.933333278 0.266666681 0.066666670
1.000000000 0.266666681 0.066666670
0.000000000 0.316666692 0.066666670
0.066666670 0.316666692 0.066666670
0.133333340 0.316666692 0.066666670
0.200000018 0.316666692 0.066666670
0.266666681 0.316666692 0.066666670
0.333333343 0.316666692 0.066666670
0.400000036 0.316666692 0.066666670
0.466666669 0.316666692 0.066666670
0.533333302 0.316666692 0.066666670
0.600000024 0.316666692 0.066666670
0.666666627 0.316666692 0.066666670
0.733333349 0.316666692 0.066666670
0.800000012 0.316666692 0.066666670
0.866666734 0.316666692 0.066666670
0.933333278 0.316666692 0.066666670
1.000000000 0.316666692 0.066666670
0.000000000 0.366666645 0.066666670
0.066666670 0.366666645 0.066666670
0.133333340 0.366666645 0.066666670
0.200000018 0.366666645 0.066666670
0.266666681 0.366666645 0.066666670
0.333333343 0.366666645 0.066666670
0.400000036 0.366666645 0.066666670
0.466666669 0.366666645 0.066666670
0.533333302 0.366666645 0.066666670
0.600000024 0.366666645 0.066666670
0.666666627 0.366666645 0.066666670
0.733333349 0.366666645 0.066666670
0.800000012 0.366666645 0.066666670
0.866666734 0.366666645 0.066666670
0.933333278 0.366666645 0.066666670
1.000000000 0.366666645 0.066666670
0.000000000 0.416666627 0.066666670
0.066666670 0.416666627 0.066666670
0.133333340 0.416666627 0.066666670
0.200000018 0.416666627 0.066666670
0.266666681 0.416666627 0.066666670
0.333333343 0.416666627 0.066666670
0.400000036 0.416666627 0.066666670
0.466666669 0.416666627 0.066666670
0.533333302 0.416666627 0.066666670
0.600000024 0.416666627 0.066666670
0.666666627 0.416666627 0.066666670
0.733333349 0.416666627 0.066666670
0.800000012 0.416666627 0.066666670
0.866666734 0.416666627 0.066666670
0.933333278 0.416666627 0.066666670
1.000000000 0.416666627 0.066666670
0.000000000 0.466666698 0.066666670
0.066666670 0.466666698 0.066666670
0.133333340 0.466666698 0.066666670
0.200000018 0.466666698 0.066666670
0.266666681 0.466666698 0.066666670
0.333333343 0.466666698 0.066666670
0.400000036 0.466666698 0.066666670
0.466666669 0.466666698 0.066666670
0.533333302 0.466666698 0.066666670
0.600000024 0.466666698 0.066666670
0.666666627 0.466666698 0.066666670
0.733333349 0.466666698 0.066666670
0.800000012 0.466666698 0.066666670
0.866666734 0.466666698 0.066666670
0.933333278 0.466666698 0.066666670
1.000000000 0.466666698 0.066666670
0.000000000 0.516666651 0.066666670
0.066666670 0.516666651 0.066666670
0.133333340 0.516666651 0.066666670
0.200000018 0.516666651 0.066666670
0.266666681 0.516666651 0.066666670
0.333333343 0.516666651 0.066666670
0.400000036 0.516666651 0.066666670
0.466666669 0.516666651 0.066666670
0.533333302 0.516666651 0.066666670
0.600000024 0.516666651 0.066666670
0.666666627 0.516666651 0.066666670
0.733333349 0.516666651 0.066666670
0.800000012 0.516666651 0.066666670
0.866666734 0.516666651 0.066666670
0.933333278 0.516666651 0.066666670
1.000000000 0.516666651 0.066666670
0.000000000 0.566666663 0.066666670
0.066666670 0.566666663 0.066666670
0.133333340 0.566666663 0.066666670
0.200000018 0.566666663 0.066666670
0.266666681 0.566666663 0.066666670
0.333333343 0.566666663 0.066666670
0.400000036 0.566666663 0.066666670
0.466666669 0.566666663 0.066666670
0.533333302 0.566666663 0.066666670
0.600000024 0.566666663 0.066666670
0.666666627 0.566666663 0.066666670
0.733333349 0.566666663 0.066666670
0.800000012 0.566666663 0.066666670
0.866666734 0.566666663 0.066666670
0.933333278 0.566666663 0.066666670
1.000000000 0.566666663 0.066666670
0.000000000 0.616666615 0.066666670
0.066666670 0.616666615 0.066666670
0.133333340 0.616666615 0.066666670
0.200000018 0.616666615 0.066666670
0.266666681 0.616666615 0.066666670
0.333333343 0.616666615 0.066666670
0.400000036 0.616666615 0.066666670
0.466666669 0.616666615 0.066666670
0.533333302 0.616666615 0.066666670
0.600000024 0.616666615 0.066666670
0.666666627 0.616666615 0.066666670
0.733333349 0.616666615 0.066666670
0.800000012 0.616666615 0.066666670
0.866666734 0.616666615 0.066666670
0.933333278 0.616666615 0.066666670
1.000000000 0.616666615 0.066666670
0.000000000 0.666666687 0.066666670
0.066666670 0.666666687 0.066666670
0.133333340 0.666666687 0.066666670
0.200000018 0.666666687 0.066666670
0.266666681 0.666666687 0.066666670
0.333333343 0.666666687 0.066666670
0.400000036 0.666666687 0.066666670
0.466666669 0.666666687 0.066666670
0.533333302 0.666666687 0.066666670
0.600000024 0.666666687 0.066666670
0.666666627 0.666666687 0.066666670
0.733333349 0.666666687 0.066666670
0.800000012 0.666666687 0.066666670
0.866666734 0.666666687 0.066666670
0.933333278 0.666666687 0.066666670
1.000000000 0.666666687 0.066666670
0.000000000 0.716666520 0.066666670
0.066666670 0.716666520 0.066666670
0.133333340 0.716666520 0.066666670
0.200000018 0.716666520 0.066666670
0.266666681 0.716666520 0.066666670
0.333333343 0.716666520 0.066666670
0.400000036 0.716666520 0.066666670
0.466666669 0.716666520 0.066666670
0.533333302 0.716666520 0.066666670
0.600000024 0.716666520 0.066666670
0.666666627 0.716666520 0.066666670
0.733333349 0.716666520 0.066666670
0.800000012 0.716666520 0.066666670
0.866666734 0.716666520 0.066666670
0.933333278 0.716666520 0.066666670
1.000000000 0.716666520 0.066666670
0.000000000 0.766666651 0.066666670
0.066666670 0.766666651 0.066666670
0.133333340 0.766666651 0.066666670
0.200000018 0.766666651 0.066666670
0.266666681 0.766666651 0.066666670
0.333333343 0.766666651 0.066666670
0.400000036 0.766666651 0.066666670
0.466666669 0.766666651 0.066666670
0.533333302 0.766666651 0.066666670
0.600000024 0.766666651 0.066666670
0.666666627 0.766666651 0.066666670
0.733333349 0.766666651 0.066666670
0.800000012 0.766666651 0.066666670
0.866666734 0.766666651 0.066666670
0.933333278 0.766666651 0.066666670
1.000000000 0.766666651 0.066666670
0.000000000 0.033333335 0.133333340
0.066666670 0.033333335 0.133333340
0.133333340 0.033333335 0.133333340
0.200000018 0.033333335 0.133333340
0.266666681 0.033333335 0.133333340
0.333333343 0.033333335 0.133333340
0.400000036 0.033333335 0.133333340
0.466666669 0.033333335 0.133333340
0.533333302 0.033333335 0.133333340
0.600000024 0.033333335 0.133333340
0.666666627 0.033333335 0.133333340
0.733333349 0.033333335 0.133333340
0.800000012 0.033333335 0.133333340
0.866666734 0.033333335 0.133333340
0.933333278 0.033333335 0.133333340
1.000000000 0.033333335 0.133333340
0.000000000 0.083333343 0.133333340
0.066666670 0.083333343 0.133333340
0.133333340 0.083333343 0.133333340
0.200000018 0.083333343 0.133333340
0.266666681 0.083333343 0.133333340
0.333333343 0.083333343 0.133333340
0.400000036 0.083333343 0.133333340
0.466666669 0.083333343 0.133333340
0.533333302 0.083333343 0.133333340
0.600000024 0.083333343 0.133333340
0.666666627 0.083333343 0.133333340
0.733333349 0.083333343 0.133333340
0.800000012 0.083333343 0.133333340
0.866666734 0.083333343 0.133333340
0.933333278 0.083333343 0.133333340
1.000000000 0.083333343 0.133333340
0.000000000 0.133333340 0.133333340
0.066666670 0.133333340 0.133333340
0.133333340 0.133333340 0.133333340
0.200000018 0.133333340 0.133333340
0.266666681 0.133333340 0.133333340
0.333333343 0.133333340 0.133333340
0.400000036 0.133333340 0.133333340
0.466666669 0.133333340 0.133333340
0.533333302 0.133333340 0.133333340
0.600000024 0.133333340 0.133333340
0.666666627 0.133333340 0.133333340
0.733333349 0.133333340 0.133333340
0.800000012 0.133333340 0.133333340
0.866666734 0.133333340 0.133333340
0.933333278 0.133333340 0.133333340
1.000000000 0.133333340 0.133333340
0.000000000 0.183333337 0.133333340
0.066666670 0.183333337 0.133333340
0.133333340 0.183333337 0.133333340
0.200000018 0.183333337 0.133333340
0.266666681 0.183333337 0.133333340
0.333333343 0.183333337 0.133333340
0.400000036 0.183333337 0.133333340
0.466666669 0.183333337 0.133333340
0.533333302 0.183333337 0.133333340
0.600000024 0.183333337 0.133333340
0.666666627 0.183333337 0.133333340
0.733333349 0.183333337 0.133333340
0.800000012 0.183333337 0.133333340
0.866666734 0.183333337 0.133333340
0.933333278 0.183333337 0.133333340
1.000000000 0.183333337 0.133333340
0.000000000 0.233333349 0.133333340
0.066666670 0.233333349 0.133333340
0.133333340 0.233333349 0.133333340
0.200000018 0.233333349 0.133333340
0.266666681 0.233333349 0.133333340
0.333333343 0.233333349 0.133333340
0.400000036 0.233333349 0.133333340
0.466666669 0.233333349 0.133333340
0.533333302 0.233333349 0.133333340
0.600000024 0.233333349 0.133333340
0.666666627 0.233333349 0.133333340
0.733333349 0.233333349 0.133333340
0.800000012 0.233333349 0.133333340
0.866666734 0.233333349 0.133333340
0.933333278 0.233333349 0.133333340
1.000000000 0.233333349 0.133333340
0.000000000 0.283333331 0.133333340
0.066666670 0.283333331 0.133333340
0.133333340 0.283333331 0.133333340
0.200000018 0.283333331 0.133333340
0.266666681 0.283333331 0.133333340
0.333333343 0.283333331 0.133333340
0.400000036 0.283333331 0.133333340
0.466666669 0.283333331 0.133333340
0.533333302 0.283333331 0.133333340
0.600000024 0.283333331 0.133333340
0.666666627 0.283333331 0.133333340
0.733333349 0.283333331 0.133333340
0.800000012 0.283333331 0.133333340
0.866666734 0.283333331 0.133333340
0.933333278 0.283333331 0.133333340
1.000000000 0.283333331 0.133333340
0.000000000 0.333333373 0.133333340
0.066666670 0.333333373 0.133333340
0.133333340 0.333333373 0.133333340
0.200000018 0.333333373 0.133333340
0.266666681 0.333333373 0.133333340
0.333333343 0.333333373 0.133333340
0.400000036 0.333333373 0.133333340
0.466666669 0.333333373 0.133333340
0.533333302 0.333333373 0.133333340
0.600000024 0.333333373 0.133333340
0.666666627 0.333333373 0.133333340
0.733333349 0.333333373 0.133333340
0.800000012 0.333333373 0.133333340
0.866666734 0.333333373 0.133333340
0.933333278 0.333333373 0.133333340
1.000000000 0.333333373 0.133333340
0.000000000 0.383333325 0.133333340
0.066666670 0.383333325 0.133333340
0.133333340 0.383333325 0.133333340
0.200000018 0.383333325 0.133333340
0.266666681 0.383333325 0.133333340
0.333333343 0.383333325 0.133333340
0.400000036 0.383333325 0.133333340
0.466666669 0.383333325 0.133333340
0.533333302 0.383333325 0.133333340
0.600000024 0.383333325 0.133333340
0.666666627 0.383333325 0.133333340
0.733333349 0.383333325 0.133333340
0.800000012 0.383333325 0.133333340
0.866666734 0.383333325 0.133333340
0.933333278 0.383333325 0.133333340
1.000000000 0.383333325 0.133333340
0.000000000 0.433333308 0.133333340
0.066666670 0.433333308 0.133333340
0.133333340 0.433333308 0.133333340
0.200000018 0.433333308 0.133333340
0.266666681 0.433333308 0.133333340
0.333333343 0.433333308 0.133333340
0.400000036 0.433333308 0.133333340
0.466666669 0.433333308 0.133333340
0.533333302 0.433333308 0.133333340
0.600000024 0.433333308 0.133333340
0.666666627 0.433333308 0.133333340
0.733333349 0.433333308 0.133333340
0.800000012 0.433333308 0.133333340
0.866666734 0.433333308 0.133333340
0.933333278 0.433333308 0.133333340
1.000000000 0.433333308 0.133333340
0.000000000 0.483333349 0.133333340
0.066666670 0.483333349 0.133333340
0.133333340 0.483333349 0.133333340
0.200000018 0.483333349 0.133333340
0.266666681 0.483333349 0.133333340
0.333333343 0.483333349 0.133333340
