example/bin/data/16/2-test.cube
TITLE "16x16x16 Adobe/IRIDAS cube 3D LUT exported with GrossGrade v0.1.027.1 (beta) 64 bit"
DOMAIN_MIN 0 0 0
DOMAIN_MAX 1 1 1
LUT_3D_SIZE 6
0.000000000 0.000000000 0.000000000
0.200000018 0.000000000 0.000000000
0.400000036 0.000000000 0.000000000
0.600000024 0.000000000 0.000000000
0.800000012 0.000000000 0.000000000
1.000000000 0.000000000 0.000000000
0.000000000 0.150000006 0.000000000
0.200000018 0.150000006 0.000000000
0.400000036 0.150000006 0.000000000
0.600000024 0.150000006 0.000000000
0.800000012 0.150000006 0.000000000
1.000000000 0.150000006 0.000000000
0.000000000 0.300000042 0.000000000
0.200000018 0.300000042 0.000000000
0.400000036 0.300000042 0.000000000
0.600000024 0.300000042 0.000000000
0.800000012 0.300000042 0.000000000
1.000000000 0.300000042 0.000000000
0.000000000 0.450000018 0.000000000
0.200000018 0.450000018 0.000000000
0.400000036 0.450000018 0.000000000
0.600000024 0.450000018 0.000000000
0.800000012 0.450000018 0.000000000
1.000000000 0.450000018 0.000000000
0.000000000 0.599999964 0.000000000
0.200000018 0.599999964 0.000000000
0.400000036 0.599999964 0.000000000
0.600000024 0.599999964 0.000000000
0.800000012 0.599999964 0.000000000
1.000000000 0.599999964 0.000000000
0.000000000 0.750000000 0.000000000
0.200000018 0.750000000 0.000000000
0.400000036 0.750000000 0.000000000
0.600000024 0.750000000 0.000000000
0.800000012 0.750000000 0.000000000
1.000000000 0.750000000 0.000000000
0.000000000 0.050000004 0.200000018
0.200000018 0.050000004 0.200000018
0.400000036 0.050000004 0.200000018
0.600000024 0.050000004 0.200000018
0.800000012 0.050000004 0.200000018
1.000000000 0.050000004 0.200000018
0.000000000 0.200000018 0.200000018
0.200000018 0.200000018 0.200000018
0.400000036 0.200000018 0.200000018
0.600000024 0.200000018 0.200000018
0.800000012 0.200000018 0.200000018
1.000000000 0.200000018 0.200000018
0.000000000 0.350000024 0.200000018
0.200000018 0.350000024 0.200000018
0.400000036 0.350000024 0.200000018
0.600000024 0.350000024 0.200000018
0.800000012 0.350000024 0.200000018
1.000000000 0.350000024 0.200000018
0.000000000 0.500000000 0.200000018
0.200000018 0.500000000 0.200000018
0.400000036 0.500000000 0.200000018
0.600000024 0.500000000 0.200000018
0.800000012 0.500000000 0.200000018
1.000000000 0.500000000 0.200000018
0.000000000 0.649999976 0.200000018
0.200000018 0.649999976 0.200000018
0.400000036 0.649999976 0.200000018
0.600000024 0.649999976 0.200000018
0.800000012 0.649999976 0.200000018
1.000000000 0.649999976 0.200000018
0.000000000 0.800000012 0.200000018
0.200000018 0.800000012 0.200000018
0.400000036 0.800000012 0.200000018
0.600000024 0.800000012 0.200000018
0.800000012 0.800000012 0.200000018
1.000000000 0.800000012 0.200000018
0.000000000 0.100000009 0.400000036
0.200000018 0.100000009 0.400000036
0.400000036 0.100000009 0.400000036
0.600000024 0.100000009 0.400000036
0.800000012 0.100000009 0.400000036
1.000000000 0.100000009 0.400000036
0.000000000 0.250000030 0.400000036
0.200000018 0.250000030 0.400000036
0.400000036 0.250000030 0.400000036
0.600000024 0.250000030 0.400000036
0.800000012 0.250000030 0.400000036
1.000000000 0.250000030 0.400000036
0.000000000 0.400000036 0.400000036
0.200000018 0.400000036 0.400000036
0.400000036 0.400000036 0.400000036
0.600000024 0.400000036 0.400000036
0.800000012 0.400000036 0.400000036
1.000000000 0.400000036 0.400000036
0.000000000 0.550000012 0.400000036
0.200000018 0.550000012 0.400000036
0.400000036 0.550000012 0.400000036
0.600000024 0.550000012 0.400000036
0.800000012 0.550000012 0.400000036
1.000000000 0.550000012 0.400000036
0.000000000 0.699999988 0.400000036
0.200000018 0.699999988 0.400000036
0.400000036 0.699999988 0.400000036
0.600000024 0.699999988 0.400000036
0.800000012 0.699999988 0.400000036
1.000000000 0.699999988 0.400000036
0.000000000 0.850000024 0.400000036
0.200000018 0.850000024 0.400000036
0.400000036 0.850000024 0.400000036
0.600000024 0.850000024 0.400000036
0.800000012 0.850000024 0.400000036
1.000000000 0.850000024 0.400000036
0.000000000 0.150000006 0.600000024
0.200000018 0.150000006 0.600000024
0.400000036 0.150000006 0.600000024
0.600000024 0.150000006 0.600000024
0.800000012 0.150000006 0.600000024
1.000000000 0.150000006 0.600000024
0.000000000 0.300000042 0.600000024
0.200000018 0.300000042 0.600000024
0.400000036 0.300000042 0.600000024
0.600000024 0.300000042 0.600000024
0.800000012 0.300000042 0.600000024
1.000000000 0.300000042 0.600000024
0.000000000 0.450000048 0.600000024
0.200000018 0.450000048 0.600000024
0.400000036 0.450000048 0.600000024
0.600000024 0.450000048 0.600000024
0.800000012 0.450000048 0.600000024
1.000000000 0.450000048 0.600000024
0.000000000 0.600000024 0.600000024
0.200000018 0.600000024 0.600000024
0.400000036 0.600000024 0.600000024
0.600000024 0.600000024 0.600000024
0.800000012 0.600000024 0.600000024
1.000000000 0.600000024 0.600000024
0.000000000 0.750000000 0.600000024
0.200000018 0.750000000 0.600000024
0.400000036 0.750000000 0.600000024
0.600000024 0.750000000 0.600000024
0.800000012 0.750000000 0.600000024
1.000000000 0.750000000 0.600000024
0.000000000 0.899999976 0.600000024
0.200000018 0.899999976 0.600000024
0.400000036 0.899999976 0.600000024
0.600000024 0.899999976 0.600000024
0.800000012 0.899999976 0.600000024
1.000000000 0.899999976 0.600000024
0.000000000 0.200000003 0.800000012
0.200000018 0.200000003 0.800000012
0.400000036 0.200000003 0.800000012
0.600000024 0.200000003 0.800000012
0.800000012 0.200000003 0.800000012
1.000000000 0.200000003 0.800000012
0.000000000 0.349999994 0.800000012
0.200000018 0.349999994 0.800000012
0.400000036 0.349999994 0.800000012
0.600000024 0.349999994 0.800000012
0.800000012 0.349999994 0.800000012
1.000000000 0.349999994 0.800000012
0.000000000 0.500000060 0.800000012
0.200000018 0.500000060 0.800000012
0.400000036 0.500000060 0.800000012
0.600000024 0.500000060 0.800000012
0.800000012 0.500000060 0.800000012
1.000000000 0.500000060 0.800000012
0.000000000 0.649999976 0.800000012
0.200000018 0.649999976 0.800000012
0.400000036 0.649999976 0.800000012
0.600000024 0.649999976 0.800000012
0.800000012 0.649999976 0.800000012
1.000000000 0.649999976 0.800000012
0.000000000 0.799999952 0.800000012
0.200000018 0.799999952 0.800000012
0.400000036 0.799999952 0.800000012
0.600000024 0.799999952 0.800000012
0.800000012 0.799999952 0.800000012
1.000000000 0.799999952 0.800000012
0.000000000 0.949999988 0.800000012
0.200000018 0.949999988 0.800000012
0.400000036 0.949999988 0.800000012
0.600000024 0.949999988 0.800000012
0.800000012 0.949999988 0.800000012
1.000000000 0.949999988 0.800000012
0.000000000 0.250000000 1.000000000
0.200000018 0.250000000 1.000000000
0.400000036 0.250000000 1.000000000
0.600000024 0.250000000 1.000000000
0.800000012 0.250000000 1.000000000
1.000000000 0.250000000 1.000000000
0.000000000 0.400000006 1.000000000
0.200000018 0.400000006 1.000000000
0.400000036 0.400000006 1.000000000
0.600000024 0.400000006 1.000000000
0.800000012 0.400000006 1.000000000
1.000000000 0.400000006 1.000000000
0.000000000 0.550000012 1.000000000
0.200000018 0.550000012 1.000000000
0.400000036 0.550000012 1.000000000
0.600000024 0.550000012 1.000000000
0.800000012 0.550000012 1.000000000
1.000000000 0.550000012 1.000000000
0.000000000 0.700000048 1.000000000
0.200000018 0.700000048 1.000000000
0.400000036 0.700000048 1.000000000
0.600000024 0.700000048 1.000000000
0.800000012 0.700000048 1.000000000
1.000000000 0.700000048 1.000000000
0.000000000 0.849999964 1.000000000
0.200000018 0.849999964 1.000000000
0.400000036 0.849999964 1.000000000
0.600000024 0.849999964 1.000000000
0.800000012 0.849999964 1.000000000
1.000000000 0.849999964 1.000000000
0.000000000 1.000000000 1.000000000
0.200000018 1.000000000 1.000000000
0.400000036 1.000000000 1.000000000
0.600000024 1.000000000 1.000000000
0.800000012 1.000000000 1.000000000
1.000000000 1.000000000 1.000000000
