example/bin/data/16/filmstock_50.cube
TITLE "16x16x16 Adobe/IRIDAS cube 3D LUT exported with GrossGrade v0.1.027.1 (beta) 64 bit"
DOMAIN_MIN 0 0 0
DOMAIN_MAX 1 1 1
LUT_3D_SIZE 6
-1.000000000 -1.000000000 -1.000000000
-1.000000000 -1.000000000 -1.000000000
-1.000000000 -1.000000000 -1.000000000
-1.000000000 -1.000000000 -1.000000000
-1.000000000 -1.000000000 -1.000000000
-1.000000000 -1.000000000 -1.000000000
-1.000000000 -1.000000000 -1.000000000
-1.000000000 -1.000000000 -1.000000000
-1.000000000 -1.000000000 -1.000000000
-1.000000000 -1.000000000 -1.000000000
-1.000000000 -1.000000000 -1.000000000
-1.000000000 -1.000000000 -1.000000000
-1.000000000 -1.000000000 -1.000000000
-1.000000000 -1.000000000 -1.000000000
-1.000000000 -1.000000000 -1.000000000
-1.000000000 -1.000000000 -1.000000000
-1.000000000 -1.000000000 -1.000000000
-1.000000000 -1.000000000 -1.000000000
-1.000000000 -1.000000000 -1.000000000
-1.000000000 -1.000000000 -1.000000000
-1.000000000 -1.000000000 -1.000000000
-1.000000000 -1.000000000 -1.000000000
-1.000000000 -1.000000000 -1.000000000
-1.000000000 -1.000000000 -1.000000000
-1.000000000 -1.000000000 -1.000000000
-1.000000000 -1.000000000 -1.000000000
-1.000000000 -1.000000000 -1.000000000
-1.000000000 -1.000000000 -1.000000000
-1.000000000 -1.000000000 -1.000000000
-1.000000000 -1.000000000 -1.000000000
-1.000000000 -1.000000000 -1.000000000
-1.000000000 -1.000000000 -1.000000000
-1.000000000 -1.000000000 -1.000000000
-1.000000000 -1.000000000 -1.000000000
-1.000000000 -1.000000000 -1.000000000
-1.000000000 -1.000000000 -1.000000000
-1.000000000 -1.000000000 -1.000000000
-1.000000000 -1.000000000 -1.000000000
-1.000000000 -1.000000000 -1.000000000
-1.000000000 -1.000000000 -1.000000000
-1.000000000 -1.000000000 -1.000000000
-1.000000000 -1.000000000 -1.000000000
-1.000000000 -1.000000000 -1.000000000
-1.000000000 -1.000000000 -1.000000000
-1.000000000 -1.000000000 -1.000000000
-1.000000000 -1.000000000 -1.000000000
-1.000000000 -1.000000000 -1.000000000
-1.000000000 -1.000000000 -1.000000000
-1.000000000 -1.000000000 -1.000000000
-1.000000000 -1.000000000 -1.000000000
-1.000000000 -1.000000000 -1.000000000
-1.000000000 -1.000000000 -1.000000000
-1.000000000 -1.000000000 -1.000000000
-1.000000000 -1.000000000 -1.000000000
-1.000000000 -1.000000000 -1.000000000
-1.000000000 -1.000000000 -1.000000000
-1.000000000 -1.000000000 -1.000000000
-1.000000000 -1.000000000 -1.000000000
-1.000000000 -1.000000000 -1.000000000
-1.000000000 -1.000000000 -1.000000000
-1.000000000 -1.000000000 -1.000000000
-1.000000000 -1.000000000 -1.000000000
-1.000000000 -1.000000000 -1.000000000
-1.000000000 -1.000000000 -1.000000000
-1.000000000 -1.000000000 -1.000000000
-1.000000000 -1.000000000 -1.000000000
-1.000000000 -1.000000000 -1.000000000
-1.000000000 -1.000000000 -1.000000000
-1.000000000 -1.000000000 -1.000000000
-1.000000000 -1.000000000 -1.000000000
-1.000000000 -1.000000000 -1.000000000
-1.000000000 -1.000000000 -1.000000000
-1.000000000 -1.000000000 -1.000000000
-1.000000000 -1.000000000 -1.000000000
-1.000000000 -1.000000000 -1.000000000
-1.000000000 -1.000000000 -1.000000000
-1.000000000 -1.000000000 -1.000000000
-1.000000000 -1.000000000 -1.000000000
-1.000000000 -1.000000000 -1.000000000
-1.000000000 -1.000000000 -1.000000000
-1.000000000 -1.000000000 -1.000000000
-1.000000000 -1.000000000 -1.000000000
-1.000000000 -1.000000000 -1.000000000
-1.000000000 -1.000000000 -1.000000000
-1.000000000 -1.000000000 -1.000000000
-1.000000000 -1.000000000 -1.000000000
-1.000000000 -1.000000000 -1.000000000
-1.000000000 -1.000000000 -1.000000000
-1.000000000 -1.000000000 -1.000000000
-1.000000000 -1.000000000 -1.000000000
-1.000000000 -1.000000000 -1.000000000
-1.000000000 -1.000000000 -1.000000000
-1.000000000 -1.000000000 -1.000000000
-1.000000000 -1.000000000 -1.000000000
-1.000000000 -1.000000000 -1.000000000
-1.000000000 -1.000000000 -1.000000000
-1.000000000 -1.000000000 -1.000000000
-1.000000000 -1.000000000 -1.000000000
-1.000000000 -1.000000000 -1.000000000
-1.000000000 -1.000000000 -1.000000000
-1.000000000 -1.000000000 -1.000000000
-1.000000000 -1.000000000 -1.000000000
-1.000000000 -1.000000000 -1.000000000
-1.000000000 -1.000000000 -1.000000000
-1.000000000 -1.000000000 -1.000000000
-1.000000000 -1.000000000 -1.000000000
-1.000000000 -1.000000000 -1.000000000
-1.000000000 -1.000000000 -1.000000000
-1.000000000 -1.000000000 -1.000000000
-1.000000000 -1.000000000 -1.000000000
-1.000000000 -1.000000000 -1.000000000
-1.000000000 -1.000000000 -1.000000000
-1.000000000 -1.000000000 -1.000000000
-1.000000000 -1.000000000 -1.000000000
-1.000000000 -1.000000000 -1.000000000
-1.000000000 -1.000000000 -1.000000000
-1.000000000 -1.000000000 -1.000000000
-1.000000000 -1.000000000 -1.000000000
-1.000000000 -1.000000000 -1.000000000
-1.000000000 -1.000000000 -1.000000000
-1.000000000 -1.000000000 -1.000000000
-1.000000000 -1.000000000 -1.000000000
-1.000000000 -1.000000000 -1.000000000
-1.000000000 -1.000000000 -1.000000000
-1.000000000 -1.000000000 -1.000000000
-1.000000000 -1.000000000 -1.000000000
-1.000000000 -1.000000000 -1.000000000
-1.000000000 -1.000000000 -1.000000000
-1.000000000 -1.000000000 -1.000000000
-1.000000000 -1.000000000 -1.000000000
-1.000000000 -1.000000000 -1.000000000
-1.000000000 -1.000000000 -1.000000000
-1.000000000 -1.000000000 -1.000000000
-1.000000000 -1.000000000 -1.000000000
-1.000000000 -1.000000000 -1.000000000
-1.000000000 -1.000000000 -1.000000000
-1.000000000 -1.000000000 -1.000000000
-1.000000000 -1.000000000 -1.000000000
-1.000000000 -1.000000000 -1.000000000
-1.000000000 -1.000000000 -1.000000000
-1.000000000 -1.000000000 -1.000000000
-1.000000000 -1.000000000 -1.000000000
-1.000000000 -1.000000000 -1.000000000
-1.000000000 -1.000000000 -1.000000000
-1.000000000 -1.000000000 -1.000000000
-1.000000000 -1.000000000 -1.000000000
-1.000000000 -1.000000000 -1.000000000
-1.000000000 -1.000000000 -1.000000000
-1.000000000 -1.000000000 -1.000000000
-1.000000000 -1.000000000 -1.000000000
-1.000000000 -1.000000000 -1.000000000
-1.000000000 -1.000000000 -1.000000000
-1.000000000 -1.000000000 -1.000000000
-1.000000000 -1.000000000 -1.000000000
-1.000000000 -1.000000000 -1.000000000
-1.000000000 -1.000000000 -1.000000000
-1.000000000 -1.000000000 -1.000000000
-1.000000000 -1.000000000 -1.000000000
-1.000000000 -1.000000000 -1.000000000
-1.000000000 -1.000000000 -1.000000000
-1.000000000 -1.000000000 -1.000000000
-1.000000000 -1.000000000 -1.000000000
-1.000000000 -1.000000000 -1.000000000
-1.000000000 -1.000000000 -1.000000000
-1.000000000 -1.000000000 -1.000000000
-1.000000000 -1.000000000 -1.000000000
-1.000000000 -1.000000000 -1.000000000
-1.000000000 -1.000000000 -1.000000000
-1.000000000 -1.000000000 -1.000000000
-1.000000000 -1.000000000 -1.000000000
-1.000000000 -1.000000000 -1.000000000
-1.000000000 -1.000000000 -1.000000000
-1.000000000 -1.000000000 -1.000000000
-1.000000000 -1.000000000 -1.000000000
-1.000000000 -1.000000000 -1.000000000
-1.000000000 -1.000000000 -1.000000000
-1.000000000 -1.000000000 -1.000000000
-1.000000000 -1.000000000 -1.000000000
-1.000000000 -1.000000000 -1.000000000
-1.000000000 -1.000000000 -1.000000000
-1.000000000 -1.000000000 -1.000000000
-1.000000000 -1.000000000 -1.000000000
-1.000000000 -1.000000000 -1.000000000
-1.000000000 -1.000000000 -1.000000000
-1.000000000 -1.000000000 -1.000000000
-1.000000000 -1.000000000 -1.000000000
-1.000000000 -1.000000000 -1.000000000
-1.000000000 -1.000000000 -1.000000000
-1.000000000 -1.000000000 -1.000000000
-1.000000000 -1.000000000 -1.000000000
-1.000000000 -1.000000000 -1.000000000
-1.000000000 -1.000000000 -1.000000000
-1.000000000 -1.000000000 -1.000000000
-1.000000000 -1.000000000 -1.000000000
-1.000000000 -1.000000000 -1.000000000
-1.000000000 -1.000000000 -1.000000000
-1.000000000 -1.000000000 -1.000000000
-1.000000000 -1.000000000 -1.000000000
-1.000000000 -1.000000000 -1.000000000
-1.000000000 -1.000000000 -1.000000000
-1.000000000 -1.000000000 -1.000000000
-1.000000000 -1.000000000 -1.000000000
-1.000000000 -1.000000000 -1.000000000
-1.000000000 -1.000000000 -1.000000000
-1.000000000 -1.000000000 -1.000000000
-1.000000000 -1.000000000 -1.000000000
-1.000000000 -1.000000000 -1.000000000
-1.000000000 -1.000000000 -1.000000000
-1.000000000 -1.000000000 -1.000000000
-1.000000000 -1.000000000 -1.000000000
-1.000000000 -1.000000000 -1.000000000
-1.000000000 -1.000000000 -1.000000000
-1.000000000 -1.000000000 -1.000000000
-1.000000000 -1.000000000 -1.000000000
-1.000000000 -1.000000000 -1.000000000
-1.000000000 -1.000000000 -1.000000000
